@extra/icons/0nyX/symbolic/network-wireless-hotspot.svg

<?xml version="1.0" encoding="UTF-8" standalone="no"?>
<svg xmlns="http://www.w3.org/2000/svg" version="1.1" viewBox="0 0 16 16">
 <rect ry="2.5" height="16" width="16" y="0" x="0" fill="#333"/>
 <path d="m3 1c-2 0-2 2-2 2v10c0 2 2 2 2 2l10-0.094c2-0.018 2-1.906 2-1.906v-10c0-2-2-2-2-2h-10zm5 2.031c1.814 0 3.629 0.618 5 1.875v1.094h-1.813c-1.842-1.41-4.53-1.41-6.373 0h-1.814v-1.094c1.371-1.256 3.186-1.875 5-1.875zm0 3.063c1.044 0 2.08 0.337 2.875 1 0.043 0.018 0.085 0.04 0.125 0.062v0.844h-6v-0.813c0.039-0.033 0.08-0.065 0.125-0.093 0.795-0.663 1.831-1 2.875-1zm0 2.906a2 2 0 1 1 0 4 2 2 0 0 1 0 -4z" overflow="visible" class="warning" fill="#f60"/>
</svg>

<svg xmlns="http://www.w3.org/2000/svg" viewBox="0 0 16 16">
    <path style="marker:none" d="M3 1C1 1 1 3 1 3v10c0 2 2 2 2 2l10-.094C15 14.888 15 13 15 13V3c0-2-2-2-2-2H3zm5 2.031c1.814 0 3.629.618 5 1.875V6h-1.813c-1.842-1.41-4.53-1.41-6.373 0H3V4.906C4.371 3.65 6.186 3.031 8 3.031zm0 3.063c1.044 0 2.08.337 2.875 1 .043.018.085.04.125.062V8H5v-.813c.039-.033.08-.065.125-.093.795-.663 1.831-1 2.875-1zM8 9a2 2 0 1 1 0 4 2 2 0 0 1 0-4z" class="warning" color="#000" overflow="visible" fill="#f60"/>
</svg>
